img/search.svg

<svg width="30" height="30" viewBox="0 0 30 30" fill="none" xmlns="http://www.w3.org/2000/svg">
<path d="M29.8169 28.0494L21.1021 19.3346C22.755 17.2939 23.75 14.6996 23.75 11.875C23.75 5.32718 18.4228 0 11.875 0C5.32712 0 0 5.32718 0 11.875C0 18.4229 5.32718 23.7501 11.875 23.7501C14.6996 23.7501 17.2939 22.755 19.3346 21.1022L28.0494 29.817C28.2935 30.061 28.6891 30.061 28.9333 29.817L29.817 28.9332C30.061 28.6891 30.061 28.2934 29.8169 28.0494ZM11.875 21.2501C6.70537 21.2501 2.50002 17.0447 2.50002 11.875C2.50002 6.70537 6.70537 2.50002 11.875 2.50002C17.0447 2.50002 21.2501 6.70537 21.2501 11.875C21.2501 17.0447 17.0447 21.2501 11.875 21.2501Z" fill="white"/>
</svg>

<svg width="30" height="30" fill="none" xmlns="http://www.w3.org/2000/svg"><path d="M29.817 28.05l-8.715-8.715a11.814 11.814 0 002.648-7.46C23.75 5.327 18.423 0 11.875 0S0 5.327 0 11.875 5.327 23.75 11.875 23.75c2.825 0 5.419-.995 7.46-2.648l8.714 8.715c.245.244.64.244.884 0l.884-.884a.625.625 0 000-.884zm-17.942-6.8c-5.17 0-9.375-4.205-9.375-9.375S6.705 2.5 11.875 2.5s9.375 4.205 9.375 9.375-4.205 9.375-9.375 9.375z" fill="#fff"/></svg>
